X: 11472
Q: "Moderate."
M: 2/4
L: 1/16
K: G
c2Ac aAce | d2Bb g2Bd | c2Ac aAce | d2Bb Hg2db |\
g4- gdbd | g4- gdbd | gdbd gd[d'd]b | {fga}Hg4 z2 |]


